16x16/panel-night/bluetooth-active-symbolic.svg

<?xml version="1.0" encoding="UTF-8" standalone="no"?>
<!-- Created with Inkscape (http://www.inkscape.org/) -->

<svg
   xmlns:dc="http://purl.org/dc/elements/1.1/"
   xmlns:cc="http://creativecommons.org/ns#"
   xmlns:rdf="http://www.w3.org/1999/02/22-rdf-syntax-ns#"
   xmlns:svg="http://www.w3.org/2000/svg"
   xmlns="http://www.w3.org/2000/svg"
   xmlns:sodipodi="http://sodipodi.sourceforge.net/DTD/sodipodi-0.dtd"
   xmlns:inkscape="http://www.inkscape.org/namespaces/inkscape"
   id="svg7384"
   style="enable-background:new"
   height="16.02"
   width="16"
   version="1.1"
   inkscape:version="0.92.5 (2060ec1f9f, 2020-04-08)"
   sodipodi:docname="bluetooth-active-symbolic.svg">
  <sodipodi:namedview
     pagecolor="#ffffff"
     bordercolor="#f1f8f8"
     borderopacity="1"
     objecttolerance="10"
     gridtolerance="10"
     guidetolerance="10"
     inkscape:pageopacity="0"
     inkscape:pageshadow="2"
     inkscape:window-width="1920"
     inkscape:window-height="1027"
     id="namedview10"
     showgrid="false"
     inkscape:zoom="14.731585"
     inkscape:cx="-16.573052"
     inkscape:cy="18.871017"
     inkscape:window-x="0"
     inkscape:window-y="29"
     inkscape:window-maximized="1"
     inkscape:current-layer="svg7384" />
  <metadata
     id="metadata90">
    <rdf:RDF>
      <cc:Work
         rdf:about="">
        <dc:format>image/svg+xml</dc:format>
        <dc:type
           rdf:resource="http://purl.org/dc/dcmitype/StillImage" />
        <dc:title>Paper Symbolic Icon Theme</dc:title>
      </cc:Work>
    </rdf:RDF>
  </metadata>
  <title
     id="title8473">Paper Symbolic Icon Theme</title>
  <defs
     id="defs7386">
    <filter
       id="filter7554"
       color-interpolation-filters="sRGB">
      <feBlend
         id="feBlend7556"
         in2="BackgroundImage"
         mode="darken" />
    </filter>
  </defs>
  <g
     style="opacity:1;fill:#f1f8f8;fill-opacity:1"
     id="g3"
     transform="matrix(0.03891324,0,0,0.03891324,1.0521352,1.2150837)">
    <path
       style="fill:#f1f8f8;fill-opacity:1"
       d="m 8,2.0097656 c -2.2093331,0 -4,1.7907669 -4,4 v 4.0000004 c 0,2.209233 1.7906669,4 4,4 2.209133,0 4,-1.790767 4,-4 V 6.0097656 c 0,-2.2092331 -1.790867,-4 -4,-4 z M 7.7285156,3.9492188 c 0.069967,0.00802 0.1381792,0.034278 0.1953125,0.080078 L 10.3125,5.9453125 c 0.09017,0.072267 0.142578,0.1813417 0.142578,0.296875 0,0.1155333 -0.05241,0.224575 -0.142578,0.296875 L 8.4765625,8.0097656 10.3125,9.4804688 c 0.09017,0.072267 0.142578,0.1813083 0.142578,0.296875 0,0.1155666 -0.05241,0.2265282 -0.142578,0.2988282 l -2.3886719,1.914062 c -0.0689,0.05523 -0.1532479,0.08399 -0.2382812,0.08399 -0.056,0 -0.1116292,-0.01393 -0.1640625,-0.03906 C 7.3894511,11.97179 7.3046875,11.839826 7.3046875,11.693359 V 8.9589844 L 6.1660156,9.8789062 c -0.070467,0.056967 -0.1561344,0.085937 -0.2402344,0.085938 -0.1110333,0 -0.2216083,-0.049478 -0.296875,-0.1425782 C 5.4966729,9.658699 5.5239333,9.4193427 5.6875,9.2871094 L 7.265625,8.0097656 5.6875,6.734375 C 5.5239333,6.6021417 5.4966729,6.3608323 5.6289062,6.1972656 5.7611396,6.0336656 6.0024823,6.008425 6.1660156,6.140625 L 7.3046875,7.0625 V 4.328125 c 0,-0.1464667 0.084764,-0.2803833 0.2167969,-0.34375 0.066033,-0.031683 0.1370646,-0.043177 0.2070312,-0.035156 z m 0.3378906,1.171875 V 7.3632812 L 9.4648438,6.2421875 Z m 0,3.5351562 v 2.242188 L 9.4648438,9.7773438 Z"
       transform="matrix(30.000003,0,0,30.000003,-60.000024,-60.30003)"
       id="path5"
       inkscape:connector-curvature="0" />
  </g>
</svg>

<?xml version="1.0" encoding="UTF-8" standalone="no"?>
<!-- Created with Inkscape (http://www.inkscape.org/) -->

<svg
   xmlns:dc="http://purl.org/dc/elements/1.1/"
   xmlns:cc="http://creativecommons.org/ns#"
   xmlns:rdf="http://www.w3.org/1999/02/22-rdf-syntax-ns#"
   xmlns:svg="http://www.w3.org/2000/svg"
   xmlns="http://www.w3.org/2000/svg"
   xmlns:sodipodi="http://sodipodi.sourceforge.net/DTD/sodipodi-0.dtd"
   xmlns:inkscape="http://www.inkscape.org/namespaces/inkscape"
   id="svg7384"
   style="enable-background:new"
   height="16.02"
   width="16"
   version="1.1"
   inkscape:version="0.91 r13725"
   sodipodi:docname="bluetooth-active-symbolic.svg">
  <sodipodi:namedview
     pagecolor="#ffffff"
     bordercolor="#666666"
     borderopacity="1"
     objecttolerance="10"
     gridtolerance="10"
     guidetolerance="10"
     inkscape:pageopacity="0"
     inkscape:pageshadow="2"
     inkscape:window-width="1366"
     inkscape:window-height="633"
     id="namedview10"
     showgrid="false"
     inkscape:zoom="14.731585"
     inkscape:cx="-5.2029242"
     inkscape:cy="8.0100001"
     inkscape:window-x="0"
     inkscape:window-y="33"
     inkscape:window-maximized="1"
     inkscape:current-layer="svg7384" />
  <metadata
     id="metadata90">
    <rdf:RDF>
      <cc:Work
         rdf:about="">
        <dc:format>image/svg+xml</dc:format>
        <dc:type
           rdf:resource="http://purl.org/dc/dcmitype/StillImage" />
        <dc:title>Paper Symbolic Icon Theme</dc:title>
      </cc:Work>
    </rdf:RDF>
  </metadata>
  <title
     id="title8473">Paper Symbolic Icon Theme</title>
  <defs
     id="defs7386">
    <filter
       id="filter7554"
       color-interpolation-filters="sRGB">
      <feBlend
         id="feBlend7556"
         in2="BackgroundImage"
         mode="darken" />
    </filter>
  </defs>
  <g
     style="opacity:1;fill:#f2f2f2;fill-opacity:1"
     id="g3"
     transform="matrix(0.03333333,0,0,0.03333333,2.0000006,2.0100008)">
    <path
       style="fill:#f2f2f2;fill-opacity:1"
       d="M 8 2.0097656 C 5.7906669 2.0097656 4 3.8005325 4 6.0097656 L 4 10.009766 C 4 12.218999 5.7906669 14.009766 8 14.009766 C 10.209133 14.009766 12 12.218999 12 10.009766 L 12 6.0097656 C 12 3.8005325 10.209133 2.0097656 8 2.0097656 z M 7.7285156 3.9492188 C 7.7984823 3.9572396 7.8666948 3.9834969 7.9238281 4.0292969 L 10.3125 5.9453125 C 10.402667 6.0175792 10.455078 6.1266542 10.455078 6.2421875 C 10.455078 6.3577208 10.402667 6.4667625 10.3125 6.5390625 L 8.4765625 8.0097656 L 10.3125 9.4804688 C 10.402667 9.5527354 10.455078 9.6617771 10.455078 9.7773438 C 10.455078 9.8929104 10.402667 10.003872 10.3125 10.076172 L 7.9238281 11.990234 C 7.8549281 12.045468 7.7705802 12.074219 7.6855469 12.074219 C 7.6295469 12.074219 7.5739177 12.06029 7.5214844 12.035156 C 7.3894511 11.97179 7.3046875 11.839826 7.3046875 11.693359 L 7.3046875 8.9589844 L 6.1660156 9.8789062 C 6.095549 9.9358729 6.0098812 9.9648437 5.9257812 9.9648438 C 5.8147479 9.9648438 5.7041729 9.9153656 5.6289062 9.8222656 C 5.4966729 9.658699 5.5239333 9.4193427 5.6875 9.2871094 L 7.265625 8.0097656 L 5.6875 6.734375 C 5.5239333 6.6021417 5.4966729 6.3608323 5.6289062 6.1972656 C 5.7611396 6.0336656 6.0024823 6.008425 6.1660156 6.140625 L 7.3046875 7.0625 L 7.3046875 4.328125 C 7.3046875 4.1816583 7.3894511 4.0477417 7.5214844 3.984375 C 7.5875177 3.9526917 7.658549 3.9411979 7.7285156 3.9492188 z M 8.0664062 5.1210938 L 8.0664062 7.3632812 L 9.4648438 6.2421875 L 8.0664062 5.1210938 z M 8.0664062 8.65625 L 8.0664062 10.898438 L 9.4648438 9.7773438 L 8.0664062 8.65625 z "
       transform="matrix(30.000003,0,0,30.000003,-60.000024,-60.30003)"
       id="path5" />
  </g>
</svg>
